Sources/FrostedUI/Resources/Icons.xcassets/expand32.imageset/expand-32.svg

<svg width="32" height="32" viewBox="0 0 32 32" fill="none" xmlns="http://www.w3.org/2000/svg" data-fui-icon="true">
  <path
    d="M18.4697 18.4697C18.7627 18.1772 19.2375 18.177 19.5303 18.4697L27.2393 26.1777V19.7158C27.2393 19.3017 27.5751 18.9659 27.9893 18.9658C28.4033 18.966 28.7392 19.3018 28.7393 19.7158V27.9893C28.7392 28.4033 28.4033 28.7391 27.9893 28.7393H19.7158C19.3018 28.7392 18.9659 28.4033 18.9658 27.9893C18.9659 27.5752 19.3017 27.2394 19.7158 27.2393L26.1787 27.2383L18.4697 19.5303C18.1769 19.2375 18.1772 18.7626 18.4697 18.4697ZM12.2842 3.26074C12.6982 3.26084 13.0341 3.59668 13.0342 4.01074C13.0341 4.42484 12.6983 4.76064 12.2842 4.76074L5.82129 4.76172L13.5303 12.4697C13.8231 12.7625 13.8228 13.2374 13.5303 13.5303C13.2373 13.8228 12.7625 13.823 12.4697 13.5303L4.76074 5.82227V12.2842C4.76067 12.6983 4.42485 13.0341 4.01074 13.0342C3.5967 13.034 3.26081 12.6982 3.26074 12.2842V4.01074C3.26084 3.59671 3.59672 3.26089 4.01074 3.26074H12.2842Z"
    fill="currentColor"
  />
</svg>

<svg xmlns="http://www.w3.org/2000/svg" width="32" height="32" fill="none" data-fui-icon="true" viewBox="0 0 32 32"><path fill="currentColor" d="M18.47 18.47a.75.75 0 0 1 1.06 0l7.71 7.708v-6.462a.75.75 0 0 1 1.5 0v8.273a.75.75 0 0 1-.75.75h-8.274a.75.75 0 0 1 0-1.5h6.463l-7.71-7.709a.75.75 0 0 1 0-1.06M12.284 3.26a.75.75 0 0 1 0 1.5l-6.463.002 7.71 7.708a.75.75 0 0 1-1.061 1.06L4.76 5.822v6.462a.75.75 0 0 1-1.5 0V4.011a.75.75 0 0 1 .75-.75z"/></svg>
